X: 35467
T: Rowsome's
R: jig
M: 6/8
K: Gmajor
(3Bcd d BdB|{d}cBc ABc|(3ddd d edc|BcA G2 z|
Bdd BdB|{d}cBc ~A2 B|ded ABB|{d}cAG G2 B|
dgd ABB|{d}cBc ABc|(3ddd d ed c|BcA G (3Bcd|
(3ddd d BdB|{d}cBc ~A3|fed BdB|{d}cAD FGG|
ABB {d}BAB|~c3 ABc|(3ddd d edc|BcA G2 B|
|:GBd GBd|~c3 {d}cBA|GBd GBd|e2d BBA|
GBd GBd|ceg ceg|(3ddd d edc|BcA G2 B:|

